assets/svgs/shopping-grey/ShoppingGrey9.svg

<svg xmlns="http://www.w3.org/2000/svg" data-name="Layer 3" viewBox="0 0 128 128"><path d="M94.161 23.4H33.839a9.558 9.558 0 00-9.548 9.548v43.667a9.558 9.558 0 009.548 9.548h33.327a13.471 13.471 0 0019.492 10.72l6.473 6.475a4.237 4.237 0 005.991-5.992l-6.472-6.472a13.375 13.375 0 001.386-4.73h3.279c3.586 0 6.395-4.194 6.395-9.548V32.952a9.558 9.558 0 00-9.549-9.552zm-23.88 61.43A10.319 10.319 0 1180.6 95.152a10.33 10.33 0 01-10.319-10.318zm26.59 14.781a1.054 1.054 0 11-1.49 1.492l-6.019-6.021a13.6 13.6 0 001.491-1.49zm3.655-23c0 3.643-1.7 6.365-3.212 6.365h-3.355a13.485 13.485 0 00-26.718 0h-33.4a6.372 6.372 0 01-6.365-6.365V32.952a6.372 6.372 0 016.365-6.365h60.32a6.372 6.372 0 016.365 6.365z"/><path d="M38.165 33.569a1.591 1.591 0 00-1.591 1.591v35.012a1.591 1.591 0 003.183 0V35.16a1.591 1.591 0 00-1.592-1.591zM89.835 33.569a1.591 1.591 0 00-1.591 1.591v35.012a1.591 1.591 0 003.182 0V35.16a1.591 1.591 0 00-1.591-1.591zM64 33.569a1.591 1.591 0 00-1.591 1.591v35.012a1.591 1.591 0 003.182 0V35.16A1.591 1.591 0 0064 33.569zM46.777 34.276a1.591 1.591 0 00-1.591 1.591v30.212a1.591 1.591 0 003.183 0V35.867a1.591 1.591 0 00-1.592-1.591zM55.388 34.276a1.591 1.591 0 00-1.588 1.591v30.212a1.591 1.591 0 103.183 0V35.867a1.591 1.591 0 00-1.595-1.591zM72.612 34.276a1.591 1.591 0 00-1.591 1.591v30.212a1.591 1.591 0 103.183 0V35.867a1.591 1.591 0 00-1.592-1.591zM81.223 34.276a1.591 1.591 0 00-1.591 1.591v30.212a1.591 1.591 0 103.183 0V35.867a1.591 1.591 0 00-1.592-1.591z"/></svg>

<svg id="Layer_3" data-name="Layer 3" xmlns="http://www.w3.org/2000/svg" viewBox="0 0 128 128"><title>Artboard 105</title><path d="M94.161,23.4H33.839a9.558,9.558,0,0,0-9.548,9.548V76.615a9.558,9.558,0,0,0,9.548,9.548H67.166a13.471,13.471,0,0,0,19.492,10.72l6.473,6.475a4.237,4.237,0,0,0,5.991-5.992l-6.472-6.472a13.375,13.375,0,0,0,1.386-4.73h3.279c3.586,0,6.395-4.194,6.395-9.548V32.952A9.558,9.558,0,0,0,94.161,23.4Zm-23.88,61.43A10.319,10.319,0,1,1,80.6,95.152,10.33,10.33,0,0,1,70.281,84.834Zm26.59,14.781a1.054,1.054,0,1,1-1.49,1.492l-6.019-6.021a13.6,13.6,0,0,0,1.491-1.49Zm3.655-23c0,3.643-1.7,6.365-3.212,6.365H93.959a13.485,13.485,0,0,0-26.718,0h-33.4a6.372,6.372,0,0,1-6.365-6.365V32.952a6.372,6.372,0,0,1,6.365-6.365H94.161a6.372,6.372,0,0,1,6.365,6.365Z"/><path d="M38.165,33.569a1.591,1.591,0,0,0-1.591,1.591V70.172a1.591,1.591,0,0,0,3.183,0V35.16A1.591,1.591,0,0,0,38.165,33.569Z"/><path d="M89.835,33.569a1.591,1.591,0,0,0-1.591,1.591V70.172a1.591,1.591,0,0,0,3.182,0V35.16A1.591,1.591,0,0,0,89.835,33.569Z"/><path d="M64,33.569a1.591,1.591,0,0,0-1.591,1.591V70.172a1.591,1.591,0,0,0,3.182,0V35.16A1.591,1.591,0,0,0,64,33.569Z"/><path d="M46.777,34.276a1.591,1.591,0,0,0-1.591,1.591V66.079a1.591,1.591,0,0,0,3.183,0V35.867A1.591,1.591,0,0,0,46.777,34.276Z"/><path d="M55.388,34.276A1.591,1.591,0,0,0,53.8,35.867V66.079a1.591,1.591,0,1,0,3.183,0V35.867A1.591,1.591,0,0,0,55.388,34.276Z"/><path d="M72.612,34.276a1.591,1.591,0,0,0-1.591,1.591V66.079a1.591,1.591,0,1,0,3.183,0V35.867A1.591,1.591,0,0,0,72.612,34.276Z"/><path d="M81.223,34.276a1.591,1.591,0,0,0-1.591,1.591V66.079a1.591,1.591,0,1,0,3.183,0V35.867A1.591,1.591,0,0,0,81.223,34.276Z"/></svg>
